img/main-logo.svg

<svg xmlns="http://www.w3.org/2000/svg" width="93" height="40" viewBox="0 0 93 40" fill="none">
  <path d="M1.90755 36.1254C31.3884 29.2195 60.8693 29.2195 90.3501 36.1254C91.3248 36.3532 92.2577 35.6199 92.2577 34.6169V1.55019C92.2577 0.547175 91.3248 -0.186099 90.3501 0.04174C60.8693 6.94761 31.3884 6.94761 1.90755 0.04174C0.932873 -0.186099 0 0.547175 0 1.55019V34.6169C0 35.6199 0.932873 36.3532 1.90755 36.1254Z" fill="#CE0E2D"/>
  <path d="M13.9263 29.1972C12.2238 29.4251 10.5214 29.6712 8.82289 29.9357C8.8451 22.0295 8.86731 14.1245 8.88953 6.21826C10.5358 6.48407 12.1846 6.73286 13.8348 6.96463C13.8322 7.91789 13.8296 8.87245 13.827 9.82571C12.8366 9.72226 11.8475 9.61358 10.8585 9.50097C10.852 11.6248 10.8467 13.7487 10.8402 15.8726C11.5366 15.8949 12.233 15.9158 12.9294 15.9368C12.9267 16.9005 12.9241 17.8655 12.9215 18.8293C12.2251 18.8332 11.5287 18.8384 10.8324 18.8437C10.8245 21.4507 10.818 24.0591 10.8101 26.6661C11.8515 26.5535 12.8928 26.4448 13.9354 26.3427C13.9328 27.2947 13.9302 28.2466 13.9276 29.1985L13.9263 29.1972Z" fill="white"/>
  <path d="M15.5295 7.19507C16.1906 7.2828 16.8504 7.36791 17.5115 7.45041C17.4945 13.6387 17.4762 19.8257 17.4592 26.014C18.2379 25.9459 19.0179 25.8805 19.798 25.8189C19.7953 26.708 19.7927 27.5984 19.7901 28.4875C18.3477 28.6433 16.9066 28.8136 15.4681 28.9969C15.489 21.7296 15.5086 14.4636 15.5295 7.19638V7.19507Z" fill="white"/>
  <path d="M25.0801 24.118C24.3432 24.1559 23.6063 24.1952 22.8708 24.2371C22.7636 25.5557 22.6578 26.8769 22.5507 28.2033C21.8882 28.2675 21.2258 28.3343 20.5634 28.4037C21.1278 21.4834 21.6909 14.6823 22.2554 7.98987C23.4326 8.11164 24.6111 8.22556 25.7896 8.33032C26.3017 14.9062 26.8139 21.3891 27.3261 27.7896C26.6767 27.8393 26.0287 27.8917 25.3806 27.9467C25.2813 26.6739 25.182 25.3973 25.0814 24.118H25.0801ZM23.0981 21.6445C23.6873 21.6261 24.2766 21.6078 24.8658 21.5908C24.581 17.9991 24.2975 14.3785 24.0127 10.7266C23.7083 14.3353 23.4025 17.9742 23.0981 21.6445Z" fill="white"/>
  <path d="M30.5701 21.8828C30.5674 22.9696 30.5635 24.0551 30.5609 25.1419C31.1214 25.1158 31.6819 25.0922 32.2437 25.0686C32.249 23.0613 32.2555 21.0553 32.2607 19.0479C31.4781 19.0505 30.6968 19.0532 29.9142 19.0558C29.1394 19.061 28.5893 18.2701 28.5906 17.4491C28.5972 15.0345 28.6037 12.62 28.6115 10.2067C28.6142 9.24823 29.1472 8.60662 29.9429 8.66423C30.9463 8.73625 31.9498 8.80041 32.9532 8.85934C33.7058 8.90386 34.2793 9.59261 34.2767 10.4869C34.2728 11.7767 34.2689 13.0678 34.2663 14.3576C33.6025 14.3419 32.9375 14.3248 32.2738 14.3078C32.2764 13.2773 32.279 12.2481 32.2829 11.2176C31.7224 11.1914 31.1619 11.1639 30.6014 11.1351C30.5962 12.967 30.591 14.7989 30.5857 16.6307C31.3684 16.6412 32.1497 16.6504 32.9323 16.6595C33.6849 16.67 34.2584 17.4125 34.2558 18.2544C34.2493 20.7737 34.2414 23.2917 34.2349 25.8111C34.2323 26.653 33.6326 27.3902 32.9022 27.4308C31.8988 27.4832 30.8941 27.5434 29.892 27.6089C29.1838 27.6573 28.5658 26.9633 28.5684 26.0873C28.5724 24.702 28.5763 23.3179 28.5802 21.9326C29.2439 21.9155 29.9076 21.8985 30.5714 21.8828H30.5701Z" fill="white"/>
  <path d="M37.1539 11.4049C36.5634 11.3866 35.9728 11.3669 35.3823 11.3447C35.3849 10.559 35.3862 9.77335 35.3888 8.98901C37.2349 9.07805 39.0811 9.14484 40.9272 9.19067C40.9246 9.9606 40.9233 10.7292 40.9207 11.4992C40.3301 11.4874 39.7383 11.4743 39.1477 11.4599C39.1334 16.7015 39.1177 21.9418 39.1033 27.1834C38.4383 27.2017 37.7732 27.2213 37.1095 27.2449C37.1239 21.9653 37.1396 16.6845 37.1539 11.4049Z" fill="white"/>
  <path d="M42.0301 10.7514C42.0327 9.933 42.6546 9.22853 43.364 9.23901C44.3688 9.25341 45.3735 9.26258 46.3782 9.26389C47.1321 9.2652 47.7057 9.97621 47.7044 10.7933C47.69 15.7311 47.6769 20.6689 47.6626 25.6067C47.66 26.4225 47.0603 27.1047 46.3286 27.1021C45.3239 27.0982 44.3191 27.1021 43.3144 27.1099C42.6049 27.1165 41.9869 26.4356 41.9883 25.6159C42.0026 20.6611 42.0157 15.7062 42.0301 10.7514ZM45.7067 11.5554C45.1449 11.5527 44.5831 11.5488 44.0225 11.5436C44.0095 15.9655 43.9977 20.3861 43.9847 24.808C44.5465 24.8054 45.1083 24.8054 45.6688 24.8054C45.6819 20.3887 45.6936 15.9707 45.7067 11.5541V11.5554Z" fill="white"/>
  <path d="M56.2558 27.347L56.248 17.8826L54.6749 27.2436L53.0574 27.2096L51.4843 17.8813L51.4922 27.1781C50.8049 27.1611 50.1177 27.1454 49.4317 27.1349C49.4487 21.1731 49.4657 15.2127 49.4827 9.2509C50.1477 9.24304 50.8938 9.23126 51.5588 9.21816L53.8714 21.9248L56.2127 9.08198C56.8777 9.05579 57.6381 9.02175 58.3032 8.98901C58.2862 15.142 58.2679 21.2936 58.2509 27.4466C57.5872 27.4112 56.9222 27.3772 56.2571 27.347H56.2558Z" fill="white"/>
  <path d="M65.1505 27.9192C63.4402 27.7765 61.73 27.6534 60.0184 27.5473C60.0354 21.3302 60.0537 15.1131 60.0707 8.89467C61.7313 8.8017 63.3906 8.69171 65.0499 8.5647C65.0473 9.39356 65.0447 10.2224 65.0434 11.0513C64.0478 11.1076 63.0522 11.1587 62.0566 11.2058C62.0514 12.9434 62.0461 14.6797 62.0422 16.4173C62.7425 16.4107 63.4441 16.4029 64.1445 16.395C64.1418 17.2186 64.1392 18.0409 64.1379 18.8646C63.4376 18.8593 62.7373 18.8541 62.0357 18.8489C62.0292 20.9819 62.0239 23.1149 62.0174 25.248C63.0652 25.303 64.1118 25.3632 65.1583 25.4287C65.1557 26.2589 65.1531 27.089 65.1518 27.9192H65.1505Z" fill="white"/>
  <path d="M70.3884 19.7903C69.8292 19.7798 69.27 19.7707 68.7095 19.7602C68.7016 22.5872 68.6938 25.413 68.6859 28.24C68.0235 28.1745 67.3611 28.113 66.6974 28.0527C66.7157 21.5109 66.734 14.9703 66.7522 8.42849C68.115 8.31326 69.4777 8.18756 70.8404 8.04876C71.5917 7.9702 72.1626 8.73621 72.16 9.68422C72.1535 12.0883 72.147 14.4924 72.1391 16.8965C72.1365 17.6363 71.8491 18.1967 71.4506 18.3421C72.0451 18.5189 72.3743 19.3517 72.373 20.0941C72.3652 22.9381 72.3573 25.7835 72.3495 28.6276C71.6884 28.5516 71.026 28.4796 70.3635 28.4102C70.3714 25.536 70.3792 22.6632 70.3884 19.789V19.7903ZM68.7173 17.1911C69.1955 17.1872 69.675 17.1846 70.1532 17.1806C70.1597 15.028 70.1649 12.8753 70.1715 10.7239C69.6933 10.7593 69.2138 10.792 68.7356 10.8247C68.729 12.9473 68.7238 15.0699 68.7173 17.1924V17.1911Z" fill="white"/>
  <path d="M74.0626 7.70051C74.7237 7.62456 75.3862 7.54468 76.0473 7.4635C76.0264 14.6666 76.0068 21.8684 75.9859 29.0715C75.3247 28.9864 74.6636 28.9026 74.0025 28.8227C74.0221 21.782 74.0417 14.7412 74.0626 7.70051Z" fill="white"/>
  <path d="M81.4434 13.6609C81.4473 12.3411 81.4512 11.0199 81.4551 9.69996C80.8986 9.76019 80.3407 9.81911 79.7828 9.87673C79.7671 15.4771 79.7514 21.0775 79.7357 26.6779C80.2923 26.7381 80.8502 26.801 81.4068 26.8651C81.4107 25.5334 81.4146 24.2018 81.4186 22.8714C82.0784 22.912 82.7369 22.9552 83.3954 22.9984C83.3901 24.715 83.3862 26.4317 83.381 28.1483C83.3784 29.2365 82.7826 30.0549 82.0575 29.9383C81.0619 29.7825 80.065 29.6345 79.0681 29.4918C78.3639 29.3884 77.7498 28.4534 77.7537 27.4465C77.7707 21.3407 77.7877 15.2362 77.806 9.13036C77.8086 8.12473 78.4279 7.161 79.1321 7.06148C80.1303 6.9253 81.1272 6.78126 82.1241 6.63199C82.8714 6.51545 83.4398 7.37574 83.4372 8.46387C83.4319 10.1583 83.428 11.8513 83.4228 13.5457C82.7643 13.5863 82.1045 13.6243 81.4447 13.6623L81.4434 13.6609Z" fill="white"/>
  <path d="M32.8987 36.0495C32.8647 36.0154 32.8007 35.9683 32.7092 35.9081C32.6178 35.8491 32.5067 35.7902 32.3761 35.7339C32.2454 35.6763 32.103 35.6291 31.9501 35.5886C31.7973 35.5493 31.6418 35.5283 31.4824 35.5283C31.2015 35.5283 30.9911 35.5807 30.8526 35.6841C30.7141 35.7876 30.6449 35.9342 30.6449 36.1228C30.6449 36.2315 30.671 36.3218 30.7233 36.3938C30.7756 36.4659 30.85 36.5287 30.9493 36.5837C31.0486 36.6387 31.1727 36.6872 31.323 36.7317C31.4733 36.7762 31.6483 36.8233 31.8456 36.8731C32.103 36.9425 32.3356 37.0171 32.5459 37.0957C32.755 37.1743 32.934 37.2738 33.0803 37.3929C33.2253 37.5121 33.3377 37.6535 33.4174 37.8198C33.4971 37.9861 33.5363 38.1904 33.5363 38.4326C33.5363 38.7141 33.4827 38.9564 33.3769 39.1567C33.2711 39.3571 33.1273 39.5194 32.947 39.6438C32.7667 39.7682 32.559 39.8586 32.3251 39.9149C32.0899 39.9725 31.8443 40 31.5869 40C31.191 40 30.8017 39.9398 30.4163 39.8219C30.0308 39.7027 29.6846 39.5351 29.3776 39.3165L29.8296 38.4326C29.874 38.4771 29.9537 38.5361 30.07 38.6068C30.1863 38.6788 30.3235 38.7508 30.4816 38.8228C30.6397 38.8948 30.8148 38.9551 31.0081 39.0048C31.2015 39.0546 31.3988 39.0782 31.6013 39.0782C32.1657 39.0782 32.4466 38.8975 32.4466 38.5361C32.4466 38.4221 32.414 38.3252 32.3499 38.2467C32.2859 38.1681 32.1945 38.0974 32.0756 38.0385C31.9567 37.9782 31.813 37.9246 31.6457 37.8748C31.4772 37.8263 31.2903 37.7714 31.0826 37.7111C30.8304 37.6417 30.6122 37.5658 30.4267 37.4846C30.2412 37.4021 30.087 37.3065 29.9629 37.1952C29.8388 37.0839 29.746 36.9556 29.6846 36.8089C29.6219 36.6636 29.5918 36.4881 29.5918 36.2852C29.5918 36.018 29.6415 35.7797 29.7395 35.5715C29.8388 35.3633 29.976 35.1905 30.151 35.0517C30.3261 34.9129 30.5299 34.8081 30.7625 34.7361C30.9951 34.6641 31.2446 34.6288 31.5111 34.6288C31.8822 34.6288 32.2232 34.6864 32.5342 34.8029C32.8451 34.9194 33.1169 35.0569 33.3494 35.2154L32.8974 36.0469L32.8987 36.0495Z" fill="#101820"/>
  <path d="M34.8599 34.6681L36.1573 37.2084L37.4769 34.6681H38.5822L36.6694 38.1001V39.9424H35.6542V38.0844L33.7493 34.6668H34.8612L34.8599 34.6681Z" fill="#101820"/>
  <path d="M42.1109 36.0494C42.077 36.0154 42.0129 35.9683 41.9215 35.908C41.83 35.8491 41.719 35.7902 41.5883 35.7339C41.4577 35.6763 41.3152 35.6291 41.1624 35.5885C41.0095 35.5492 40.854 35.5283 40.6946 35.5283C40.4137 35.5283 40.2034 35.5807 40.0649 35.6841C39.9264 35.7876 39.8571 35.9342 39.8571 36.1228C39.8571 36.2315 39.8833 36.3218 39.9355 36.3938C39.9878 36.4658 40.0623 36.5287 40.1616 36.5837C40.2609 36.6387 40.385 36.6871 40.5352 36.7316C40.6855 36.7762 40.8606 36.8233 41.0579 36.8731C41.3152 36.9425 41.5478 37.0171 41.7582 37.0957C41.9672 37.1742 42.1462 37.2737 42.2925 37.3929C42.4376 37.5121 42.5499 37.6535 42.6296 37.8198C42.7093 37.9861 42.7485 38.1903 42.7485 38.4326C42.7485 38.7141 42.695 38.9563 42.5891 39.1567C42.4833 39.357 42.3396 39.5194 42.1593 39.6438C41.979 39.7682 41.7712 39.8585 41.5374 39.9148C41.3022 39.9725 41.0565 40 40.7992 40C40.4033 40 40.0139 39.9397 39.6285 39.8219C39.2431 39.7027 38.8968 39.5351 38.5898 39.3164L39.0419 38.4326C39.0863 38.4771 39.166 38.536 39.2823 38.6067C39.3985 38.6788 39.5357 38.7508 39.6938 38.8228C39.8519 38.8948 40.027 38.955 40.2204 39.0048C40.4137 39.0546 40.611 39.0781 40.8135 39.0781C41.378 39.0781 41.6589 38.8974 41.6589 38.536C41.6589 38.4221 41.6262 38.3252 41.5622 38.2466C41.4982 38.1681 41.4067 38.0974 41.2878 38.0384C41.1689 37.9782 41.0252 37.9245 40.858 37.8748C40.6894 37.8263 40.5026 37.7713 40.2948 37.7111C40.0427 37.6417 39.8245 37.5657 39.6389 37.4846C39.4534 37.4021 39.2992 37.3065 39.1751 37.1952C39.051 37.0839 38.9582 36.9556 38.8968 36.8089C38.8341 36.6636 38.8041 36.4881 38.8041 36.2851C38.8041 36.018 38.8537 35.7797 38.9517 35.5715C39.051 35.3633 39.1882 35.1905 39.3633 35.0517C39.5383 34.9129 39.7422 34.8081 39.9747 34.7361C40.2073 34.6641 40.4568 34.6287 40.7234 34.6287C41.0944 34.6287 41.4354 34.6863 41.7464 34.8029C42.0574 34.9194 42.3291 35.0569 42.5617 35.2153L42.1096 36.0468L42.1109 36.0494Z" fill="#101820"/>
  <path d="M47.4979 35.5663H45.8151V39.9424H44.7999V35.5663H43.1171V34.668H47.4979V35.5663Z" fill="#101820"/>
  <path d="M51.7771 39.0428V39.9424H48.1227V34.668H51.7104V35.5663H49.1457V36.8364H51.3629V37.6692H49.1457V39.0428H51.7771Z" fill="#101820"/>
  <path d="M56.9976 39.9424V36.4515L55.6414 39.052H55.0861L53.73 36.4515V39.9424H52.7069V34.668H53.8044L55.3605 37.6692L56.9323 34.668H58.022V39.9424H56.9989H56.9976Z" fill="#101820"/>
  <path d="M62.3337 36.0494C62.2997 36.0154 62.2357 35.9683 62.1442 35.908C62.0528 35.8491 61.9417 35.7902 61.811 35.7339C61.6804 35.6763 61.538 35.6291 61.3851 35.5885C61.2323 35.5492 61.0768 35.5283 60.9174 35.5283C60.6365 35.5283 60.4261 35.5807 60.2876 35.6841C60.1491 35.7876 60.0799 35.9342 60.0799 36.1228C60.0799 36.2315 60.106 36.3218 60.1583 36.3938C60.2105 36.4658 60.285 36.5287 60.3843 36.5837C60.4836 36.6387 60.6077 36.6871 60.758 36.7316C60.9082 36.7762 61.0833 36.8233 61.2806 36.8731C61.538 36.9425 61.7706 37.0171 61.9809 37.0957C62.19 37.1742 62.3689 37.2737 62.5153 37.3929C62.6603 37.5121 62.7727 37.6535 62.8524 37.8198C62.9321 37.9861 62.9713 38.1903 62.9713 38.4326C62.9713 38.7141 62.9177 38.9563 62.8119 39.1567C62.706 39.357 62.5623 39.5194 62.382 39.6438C62.2017 39.7682 61.994 39.8585 61.7601 39.9148C61.5249 39.9725 61.2793 40 61.0219 40C60.626 40 60.2367 39.9397 59.8512 39.8219C59.4658 39.7027 59.1196 39.5351 58.8125 39.3164L59.2646 38.4326C59.309 38.4771 59.3887 38.536 59.505 38.6067C59.6213 38.6788 59.7585 38.7508 59.9166 38.8228C60.0747 38.8948 60.2497 38.955 60.4431 39.0048C60.6365 39.0546 60.8338 39.0781 61.0363 39.0781C61.6007 39.0781 61.8816 38.8974 61.8816 38.536C61.8816 38.4221 61.8489 38.3252 61.7849 38.2466C61.7209 38.1681 61.6294 38.0974 61.5105 38.0384C61.3916 37.9782 61.2479 37.9245 61.0807 37.8748C60.9122 37.8263 60.7253 37.7713 60.5176 37.7111C60.2654 37.6417 60.0472 37.5657 59.8617 37.4846C59.6762 37.4021 59.522 37.3065 59.3979 37.1952C59.2737 37.0839 59.181 36.9556 59.1196 36.8089C59.0569 36.6636 59.0268 36.4881 59.0268 36.2851C59.0268 36.018 59.0765 35.7797 59.1744 35.5715C59.2737 35.3633 59.4109 35.1905 59.586 35.0517C59.7611 34.9129 59.9649 34.8081 60.1975 34.7361C60.43 34.6641 60.6796 34.6287 60.9461 34.6287C61.3172 34.6287 61.6582 34.6863 61.9691 34.8029C62.2801 34.9194 62.5519 35.0569 62.7844 35.2153L62.3324 36.0468L62.3337 36.0494Z" fill="#101820"/>
  <path d="M89.4187 4.55269C89.3155 4.31176 89.1704 4.10356 88.9849 3.92941C88.7994 3.75395 88.5799 3.61646 88.3264 3.51563C88.0729 3.41481 87.7999 3.36505 87.5046 3.36505C87.2093 3.36505 86.9362 3.41481 86.6854 3.51563C86.4345 3.61646 86.2163 3.75395 86.0334 3.92941C85.8492 4.10487 85.7068 4.31307 85.6049 4.55269C85.503 4.79363 85.452 5.0542 85.452 5.33573C85.452 5.61725 85.503 5.88306 85.6049 6.12399C85.7068 6.36493 85.8492 6.57312 86.0334 6.75121C86.2176 6.92798 86.4345 7.06678 86.6854 7.1676C86.9362 7.26843 87.2093 7.31818 87.5046 7.31818C87.7999 7.31818 88.0729 7.26843 88.3264 7.1676C88.5799 7.06678 88.7994 6.92929 88.9849 6.75121C89.1704 6.57443 89.3155 6.36493 89.4187 6.12399C89.5219 5.88306 89.5742 5.61987 89.5742 5.33573C89.5742 5.05158 89.5219 4.79363 89.4187 4.55269ZM88.9875 5.97079C88.9052 6.16197 88.7915 6.32564 88.6465 6.46182C88.5028 6.598 88.3329 6.70407 88.137 6.78132C87.941 6.85727 87.7306 6.89655 87.5059 6.89655C87.2812 6.89655 87.0604 6.85727 86.867 6.77739C86.6723 6.69752 86.5051 6.58753 86.3653 6.44611C86.2242 6.30469 86.1144 6.13971 86.0347 5.94984C85.955 5.75998 85.9158 5.55571 85.9158 5.33703C85.9158 5.11836 85.9563 4.91933 86.0347 4.73208C86.1144 4.54484 86.2242 4.38116 86.3653 4.24105C86.5064 4.10094 86.6736 3.99226 86.867 3.91239C87.0604 3.83251 87.2733 3.79323 87.5059 3.79323C87.7385 3.79323 87.9514 3.83251 88.1474 3.91239C88.3434 3.99226 88.5119 4.10225 88.6543 4.24105C88.7968 4.38116 88.9091 4.54484 88.9901 4.7347C89.0711 4.92457 89.1116 5.12884 89.1116 5.34751C89.1116 5.56618 89.0698 5.78224 88.9875 5.97341V5.97079Z" fill="white"/>
  <path d="M87.9396 5.57794C88.0493 5.53473 88.1369 5.45878 88.2048 5.34879C88.2714 5.2388 88.3054 5.12226 88.3054 4.99656C88.3054 4.91407 88.2897 4.83419 88.2571 4.75432C88.2257 4.67444 88.1813 4.60373 88.1251 4.53957C88.0689 4.47541 88.001 4.42434 87.9226 4.38375C87.8429 4.34447 87.758 4.32483 87.6665 4.32483H86.7767V6.33609H87.2105V5.65913H87.5032L87.9226 6.33609H88.4112L87.9409 5.57663L87.9396 5.57794ZM87.8102 5.21C87.7658 5.25975 87.7057 5.28594 87.6299 5.28594H87.2105V4.7098H87.6208C87.6913 4.7098 87.7514 4.73337 87.8011 4.78051C87.8507 4.82764 87.8768 4.89966 87.8768 4.99787C87.8768 5.08953 87.8546 5.16024 87.8102 5.21Z" fill="white"/>
</svg>

<svg xmlns="http://www.w3.org/2000/svg" width="93" height="40" fill="none"><path d="M1.908 36.125c29.48-6.905 58.961-6.905 88.442 0a1.55 1.55 0 001.908-1.508V1.55A1.55 1.55 0 0090.35.042c-29.48 6.906-58.962 6.906-88.442 0A1.55 1.55 0 000 1.55v33.067a1.55 1.55 0 001.908 1.508z" fill="#CE0E2D"/><path d="M13.926 29.197c-1.702.228-3.405.474-5.103.739L8.89 6.218c1.646.266 3.295.515 4.945.747l-.008 2.86c-.99-.103-1.98-.211-2.969-.324l-.018 6.372 2.09.064-.008 2.892c-.697.004-1.393.01-2.09.015l-.022 7.822c1.041-.113 2.083-.221 3.125-.323l-.007 2.855h-.002zM15.53 7.195c.66.088 1.32.173 1.982.255l-.053 18.564c.779-.068 1.559-.133 2.339-.195l-.008 2.669a227.36 227.36 0 00-4.322.509c.021-7.267.04-14.533.062-21.8v-.002zm9.55 16.923c-.737.038-1.474.077-2.21.12l-.32 3.965c-.662.064-1.324.131-1.987.2.565-6.92 1.128-13.72 1.692-20.413 1.178.122 2.356.236 3.535.34.512 6.576 1.024 13.06 1.536 19.46-.65.05-1.297.102-1.945.157l-.3-3.829zm-1.982-2.473l1.768-.054a7049.48 7049.48 0 01-.853-10.864c-.305 3.608-.61 7.247-.915 10.918zm7.472.238l-.01 3.259c.561-.026 1.122-.05 1.684-.073l.017-6.021-2.347.008c-.775.005-1.325-.786-1.323-1.607l.02-7.242c.003-.959.536-1.6 1.332-1.543 1.003.072 2.007.136 3.01.195.753.045 1.326.734 1.324 1.628-.004 1.29-.008 2.58-.01 3.87-.665-.015-1.33-.032-1.993-.05l.009-3.09a320.68 320.68 0 01-1.682-.082l-.015 5.496 2.346.029c.753.01 1.326.753 1.324 1.594l-.021 7.557c-.003.842-.602 1.58-1.333 1.62a215.94 215.94 0 00-3.01.178c-.708.048-1.326-.646-1.324-1.522l.012-4.154a943.22 943.22 0 011.991-.05zm6.584-10.478c-.59-.018-1.181-.038-1.772-.06l.007-2.356c1.846.089 3.692.156 5.538.202l-.006 2.308c-.59-.012-1.183-.025-1.773-.04l-.045 15.724c-.665.019-1.33.038-1.994.062l.045-15.84zm4.876-.654c.003-.818.625-1.522 1.334-1.512 1.005.014 2.01.024 3.014.025.754.001 1.328.712 1.326 1.53l-.041 14.813c-.003.816-.603 1.498-1.334 1.495-1.005-.004-2.01 0-3.015.008-.71.006-1.327-.674-1.326-1.494l.042-14.865zm3.677.804a313.75 313.75 0 01-1.684-.011c-.014 4.421-.025 8.842-.038 13.264.562-.003 1.123-.003 1.684-.003l.038-13.25zm10.549 15.792l-.008-9.464-1.573 9.36-1.618-.033-1.573-9.329.008 9.297c-.687-.017-1.374-.033-2.06-.043l.05-17.884c.666-.008 1.412-.02 2.077-.033l2.312 12.707 2.342-12.843c.665-.026 1.425-.06 2.09-.093l-.052 18.458c-.664-.036-1.329-.07-1.994-.1h-.001zm8.894.573c-1.71-.144-3.42-.267-5.132-.373l.053-18.652c1.66-.093 3.32-.203 4.979-.33l-.007 2.486c-.995.057-1.99.108-2.986.155l-.015 5.211c.7-.006 1.402-.014 2.102-.022-.002.824-.005 1.646-.006 2.47l-2.102-.016-.019 6.399c1.048.055 2.095.115 3.141.18l-.006 2.491h-.002zm5.238-8.13l-1.678-.03-.024 8.48a219.27 219.27 0 00-1.989-.187l.055-19.625a239.34 239.34 0 004.088-.38c.752-.078 1.323.688 1.32 1.636l-.02 7.213c-.004.74-.29 1.3-.69 1.445.595.177.924 1.01.923 1.752l-.023 8.534c-.662-.076-1.324-.148-1.986-.218.007-2.874.015-5.747.024-8.621v.001zm-1.67-2.599l1.435-.01.018-6.457c-.478.035-.957.068-1.435.1l-.019 6.368zM74.063 7.7c.66-.075 1.323-.155 1.984-.237l-.061 21.608c-.661-.085-1.322-.168-1.984-.248l.06-21.122zm7.38 5.96l.012-3.96c-.556.06-1.114.12-1.672.177l-.047 16.8c.556.061 1.114.124 1.67.188l.013-3.994c.66.041 1.318.084 1.976.127l-.014 5.15c-.003 1.088-.598 1.907-1.323 1.79-.996-.155-1.993-.303-2.99-.446-.704-.104-1.318-1.039-1.314-2.046l.052-18.316c.003-1.005.622-1.969 1.326-2.069.998-.136 1.995-.28 2.992-.429.747-.117 1.316.744 1.313 1.832l-.014 5.082c-.659.04-1.319.078-1.978.116l-.002-.001z" fill="#fff"/><path d="M32.899 36.05a1.333 1.333 0 00-.19-.142 2.285 2.285 0 00-.333-.174 2.894 2.894 0 00-.426-.145 1.869 1.869 0 00-.468-.06c-.28 0-.49.052-.63.155a.516.516 0 00-.207.439c0 .108.026.199.078.27a.676.676 0 00.226.19c.1.056.224.104.374.149.15.044.325.091.523.141.257.07.49.144.7.223a1.9 1.9 0 01.534.297c.145.12.258.26.337.427.08.166.12.37.12.613 0 .281-.054.523-.16.724-.106.2-.25.362-.43.487-.18.124-.388.215-.622.27a3.09 3.09 0 01-.738.086c-.396 0-.785-.06-1.17-.178a3.617 3.617 0 01-1.04-.506l.453-.883c.044.044.124.103.24.174.116.072.253.144.412.216.158.072.333.132.526.182.194.05.39.073.593.073.565 0 .846-.18.846-.542a.444.444 0 00-.097-.29.814.814 0 00-.274-.208 2.602 2.602 0 00-.43-.163l-.563-.164a4.861 4.861 0 01-.656-.226 1.756 1.756 0 01-.464-.29 1.07 1.07 0 01-.278-.386 1.322 1.322 0 01-.093-.524c0-.267.05-.505.148-.713.099-.209.236-.382.411-.52.175-.14.379-.244.611-.316.233-.072.483-.107.75-.107.37 0 .711.057 1.022.174.311.116.583.254.815.412l-.452.832.002.003zm1.961-1.382l1.297 2.54 1.32-2.54h1.105L36.67 38.1v1.842h-1.015v-1.858l-1.905-3.417h1.112l-.001.001zm7.25 1.382a1.347 1.347 0 00-.188-.142 2.296 2.296 0 00-.334-.174 2.905 2.905 0 00-.426-.145 1.87 1.87 0 00-.467-.06c-.281 0-.492.052-.63.155a.516.516 0 00-.208.439.45.45 0 00.078.27.677.677 0 00.227.19c.099.056.223.104.373.149.15.044.326.091.523.141.257.07.49.144.7.223.21.078.388.178.534.297.146.12.258.26.338.427.08.166.118.37.118.613 0 .281-.053.523-.159.724-.106.2-.25.362-.43.487-.18.124-.388.215-.622.27-.235.058-.48.086-.738.086-.396 0-.785-.06-1.17-.178a3.616 3.616 0 01-1.04-.506l.453-.883c.044.044.124.103.24.174.117.072.254.144.412.216.158.072.333.132.526.182.194.05.391.073.593.073.565 0 .846-.18.846-.542a.445.445 0 00-.097-.29.817.817 0 00-.274-.208 2.605 2.605 0 00-.43-.163l-.563-.164a4.885 4.885 0 01-.656-.226 1.756 1.756 0 01-.464-.29 1.07 1.07 0 01-.278-.386 1.322 1.322 0 01-.093-.524c0-.267.05-.505.148-.713.099-.209.236-.382.411-.52.175-.14.38-.244.612-.316.232-.072.482-.107.748-.107.371 0 .712.057 1.023.174.311.116.583.254.816.412l-.452.832v.002zm5.388-.484h-1.683v4.376H44.8v-4.376h-1.683v-.898h4.38v.898zm4.279 3.477v.9h-3.654v-5.275h3.587v.898h-2.564v1.27h2.217v.833h-2.217v1.374h2.631zm5.221.899v-3.49l-1.357 2.6h-.555l-1.356-2.6v3.49h-1.023v-5.274h1.097l1.556 3.001 1.572-3.001h1.09v5.274h-1.024zm5.336-3.892a1.35 1.35 0 00-.19-.142 2.291 2.291 0 00-.333-.174 2.9 2.9 0 00-.426-.145 1.869 1.869 0 00-.468-.06c-.28 0-.49.052-.63.155a.516.516 0 00-.207.439c0 .108.026.199.078.27a.676.676 0 00.226.19c.1.056.224.104.374.149.15.044.325.091.523.141.257.07.49.144.7.223.209.078.388.178.534.297.145.12.258.26.337.427.08.166.12.37.12.613 0 .281-.054.523-.16.724-.106.2-.25.362-.43.487-.18.124-.388.215-.622.27-.235.058-.48.086-.738.086-.396 0-.785-.06-1.17-.178a3.617 3.617 0 01-1.04-.506l.453-.883c.044.044.124.103.24.174.116.072.253.144.412.216.158.072.333.132.526.182.194.05.39.073.593.073.565 0 .846-.18.846-.542a.445.445 0 00-.097-.29.817.817 0 00-.274-.208 2.605 2.605 0 00-.43-.163l-.563-.164a4.875 4.875 0 01-.656-.226 1.756 1.756 0 01-.464-.29 1.068 1.068 0 01-.278-.386 1.322 1.322 0 01-.093-.524c0-.267.05-.505.147-.713.1-.209.237-.382.412-.52.175-.14.379-.244.611-.316.233-.072.483-.107.75-.107.37 0 .711.057 1.022.174.311.116.583.254.815.412l-.452.832.002.002z" fill="#101820"/><path d="M89.419 4.553a1.838 1.838 0 00-.434-.624 2.047 2.047 0 00-.659-.413 2.2 2.2 0 00-.821-.15 2.155 2.155 0 00-.82.15c-.25.1-.469.238-.652.413a1.85 1.85 0 00-.428.624c-.102.24-.153.501-.153.783 0 .281.051.547.153.788.102.24.244.45.428.627.185.177.401.316.652.417.251.1.524.15.82.15a2.2 2.2 0 00.821-.15c.254-.101.473-.239.659-.417a1.88 1.88 0 00.434-.627c.103-.24.155-.504.155-.788 0-.284-.052-.542-.155-.783zm-.431 1.418a1.453 1.453 0 01-.341.49 1.567 1.567 0 01-.51.32 1.732 1.732 0 01-.631.116c-.225 0-.446-.04-.639-.12a1.491 1.491 0 01-.502-.33 1.567 1.567 0 01-.45-1.11 1.542 1.542 0 01.45-1.096 1.54 1.54 0 01.502-.329c.193-.08.406-.119.639-.119.233 0 .445.04.641.12a1.522 1.522 0 01.964 1.435c0 .218-.041.434-.123.625v-.002z" fill="#fff"/><path d="M87.94 5.578a.54.54 0 00.265-.23.67.67 0 00.1-.351.727.727 0 00-.18-.457.681.681 0 00-.202-.156.57.57 0 00-.257-.06h-.89v2.012h.434V5.66h.293l.42.677h.488l-.47-.76-.001.002zm-.13-.368a.23.23 0 01-.18.076h-.42V4.71h.41c.071 0 .131.023.181.07.05.048.076.12.076.218a.308.308 0 01-.067.212z" fill="#fff"/></svg>
